packages/tokens/icons/translate/size16Px.svg

<svg xmlns="http://www.w3.org/2000/svg" fill="none" viewBox="0 0 16 16" width="1em" height="1em"><path stroke="currentColor" d="M3 5.5h3.9"/><path stroke="currentColor" stroke-linecap="round" stroke-linejoin="round" d="M2 7.5 5 2l3 5.5m5.5 2c0 1.5-2 4.5-4.5 4.5"/><path stroke="currentColor" stroke-linecap="round" stroke-linejoin="round" d="M9.5 9.5c0 1.5 2 4.5 4.5 4.5M8.5 9.5h6m-3-1.5v1.5"/><path stroke="currentColor" stroke-linecap="round" d="M9.5 2.5h2a2 2 0 0 1 2 2v2m-7 7h-2a2 2 0 0 1-2-2v-2"/></svg>

<svg viewBox="0 0 16 16" fill="none" xmlns="http://www.w3.org/2000/svg" width="1em" height="1em"><path d="M3 5.5L6.89999 5.5" stroke="currentColor"/><path d="M2 7.5L5 2L8 7.5" stroke="currentColor" stroke-linecap="round" stroke-linejoin="round"/><path d="M13.5 9.5C13.5 11 11.5 14 9 14" stroke="currentColor" stroke-linecap="round" stroke-linejoin="round"/><path d="M9.5 9.5C9.5 11 11.5 14 14 14" stroke="currentColor" stroke-linecap="round" stroke-linejoin="round"/><path d="M8.5 9.5L14.5 9.5" stroke="currentColor" stroke-linecap="round" stroke-linejoin="round"/><path d="M11.5 8V9.5" stroke="currentColor" stroke-linecap="round" stroke-linejoin="round"/><path d="M9.5 2.5L11.5 2.5C12.6046 2.5 13.5 3.39543 13.5 4.5V6.5" stroke="currentColor" stroke-linecap="round"/><path d="M6.5 13.5H4.5C3.39543 13.5 2.5 12.6046 2.5 11.5V9.5" stroke="currentColor" stroke-linecap="round"/></svg>
